T: Shoe The Donkey
M: 3/4
L: 1/8
K: Dmaj
|:AG F2 D2|AG F2 D2|FG A2 d2|F2 E3 F|GF E2 EF|GF E2 ED|EF G2 B2|A2 D4:||:FG A2 d2|F2 E3 D|EF G2 B2|A2 F4|FF F2 E2|EF F2 E2|EF G2 B2|A2 D4:|FF|F2 E3F|F2 E3F|G2
